X:1
T:Title
%%score { ( 1 3 ) | 2 }
L:1/8
Q:1/4=100
M:3/4
K:Eb
V:1 treble nm="Grand Piano"
V:3 treble 
V:2 bass 
V:1
 G2 _G2 =G2 | [GB]2 G2 z2 | E2 A2 c2 | B4 z2 | [DG]2 [DF]2 [_D=E]2 | [DF]2 [DG]2 [DF]2 | E2 e2 c2 | %7
 B4 z2 | G2 _G2 =G2 | [GB]2 [EG]2 z2 | [GB]2 [_G=A]2 [=GB]2 | [EAc]4 z2 | [Ad]2 [Ac]2 [Fd]2 | %13
 [Ee]2 [EG]2 [E=A]2 | [EB]2 [Dc]2 [DB]2 | E4 z2 | G2 F2 E2 | B6- | B6- | B4 z2 | G2 F2 E2 | B6- | %22
 B6- | B4 z2 | [Fd]2 [Ec]2 [DB]2 | [Ee]2 [EG]2 [E=A]2 | [EB]2 [Dc]2 [DB]2 | E4 z2 |] %28
V:2
 [E,B,E]2 [E,=A,E]2 [E,B,E]2 | [E,E]2 [E,B,E]2 z2 | [E,A,C]2 [E,A,C]2 [E,A,E]2 | [E,G,E]4 z2 | %4
 [B,,B,]2 [B,,A,]2 [B,,G,]2 | [B,,A,]2 [B,,B,]2 [B,,A,]2 | [E,G,]2 [E,CE]2 [E,A,E]2 | [E,G,E]4 z2 | %8
 [E,B,E]2 [E,=A,E]2 [E,B,E]2 | [E,E]2 [E,B,]2 z2 | [E,E]2 [E,E]2 [E,E]2 | A,,4 z2 | %12
 [B,,B,]2 [B,,F,]2 B,,2 | [C,G,]2 [C,G,]2 [C,_G,]2 | [B,,G,]2 [B,,A,]2 [B,,A,]2 | [E,G,]4 z2 | z6 | %17
 z6 | [B,,F,]2 [B,,G,]2 [B,,A,]2 | [E,G,]4 z2 | z6 | z6 | [B,,F,]2 [B,,G,]2 [B,,A,]2 | [E,G,]4 z2 | %24
 [B,,A,]2 [B,,A,]2 [B,,A,]2 | [C,G,]2 [C,G,]2 [C,_G,]2 | [B,,G,]2 [B,,A,]2 [B,,A,]2 | [E,G,]4 z2 |] %28
V:3
 x6 | x6 | x6 | x6 | x6 | x6 | x6 | x6 | x6 | x6 | x6 | x6 | x6 | x6 | x6 | x6 | x6 | x6 | %18
 D2 E2 F2 | E4 z2 | x6 | x6 | D2 E2 F2 | E4 z2 | x6 | x6 | x6 | x6 |] %28

